X:1
P: Madam Frederick
C: by William Marshall
C: Arr. T. Traub 2-4-1995
K: A
M: 4/4
L: 1/8
E|"A"A,>B,C>D E>FE<C|A,>CE<C E<AA<c|"A"A,>B,C>D "F#m"E>FE<C|"Bm"B,>B d/c/B/A/ "E"G<BB<c|
"A"A,>B,C>D E>FE<C|"A"A,>CE<C E<AA<c|"A"e>cA<E "D"F<df>e|"Bm"d>cB>A "E"G<BB<c||
"A"A<Ac>A e>Ac>A|"A"E>Ac>A "D"f/e/d/c/ "E"B>c|"A"A<Ac>A e>Ac>A|"D"F>A F/E/D/C/ "E"B,<BB<c|
"A"A<Ac>A e>Ac>A|"A"E>Ac>A "D"f/e/d/c/ "E"B>c|"A"A>cA<E "D"F>AF<D|"E"E>DC>B, |"A"A,<A A |]
